X: 4
T:All The Blue Bonnets are Over the Border
M:6/8
L:1/8
R:Pipe March
K:A mix
a|"A"A>AA c2e|"A"a2 a a2 e|"G"g>ag "D"f<af|"A"e>cA "E7"B2 c|"A"A>AA c2e|
"A"a2 a a2 e|!"D"f>ed "A"c>de|"D"f<ac "E7"B2 A:||:"A"A>ce e>cA|"D"f>ed "
A"c>BA|
"A"A>ce "F#m"f>ga|!"Bm"A>Bc "E7"B2 A|"A"A>ce e>cA|"D"f>ed "A"c>BA|"D"a>g
f "A"e>ce|
"D"f<ac "E7"B2 A:|!|:"D"d3 "G"d3|"D"d>fe d>BA|"G"d>BB B2A|"Em"a>Aa "A7"f
2e|
"D"d3 "G"d3|"D"d>fe d>BA|!"G"d>cB A>Bc|"Em"d>ef "A7" e2 d:|"D"d>fa a>fd|
"D"a>gf "A"f>ef|"D"d>fa a>fd|"Em"d>ef "A7" e2 d|!"D"d>fa a>fd|"D"a>gf "A
"f>ef|
"G"d>cB A>Bc|"Em"d>ef "A7" e2 d|"D"d>fa a>fd|
"D"a>gf "A"f>ef|!"D"d>fa a>fd|"Em"d>ef "A7" e2 d|"D"d>fa a>fd|"D"a>Aa f2
e|
"G"d>cB A>Bc|"Em"d>ef "A7" e2 d||
